X:1
T:Mahler no.2
T:Mahler no.2 
T:Trombone 3
T:Gustav Mahler
C:Gustav Mahler
L:1/8
Q:1/4=80
M:4/4
K:Db
V:1 bass nm="Trombone" snm="Tbn."
V:1
!pp! !tenuto!F,4 !tenuto!F,4 | !tenuto!F,4 !tenuto!D,4 | !tenuto!G,4 !tenuto!G,2 !tenuto!E,2 | %3
 !tenuto!F,4 !breath!!tenuto!G,4 | !tenuto!=G,4 !tenuto!F,4 | !tenuto!E,4 !tenuto!F,4 | %6
 !tenuto!=G,2 !tenuto!C2 !tenuto!B,2 !tenuto!A,2 | =G,6 z2 |!p! F,4 =G,4 | F,4 z2 C,E, | %10
 A,2 =G,2 F,4 | E,4 z4 | z8 | z4 z2!<(! F,2!<)! |!f! F,4 G,4 | G,4 =G,4 | %16
!<(! =A,2 B,2 _A,2 =A,2!<)! |!ff!!p!!f!!<(! =G,8-!<)! |!ff!!<(!!>(! G,8-!<)!!>)! || %19
[K:C]!p! G,2 z2 z4 | z8 |!ff!!>(! G,,8-!>)! | G,,4 z2 G,2 | G,4 G,4 | C4 z4 | C2 G,G, (G,3 C) | %26
 C4 z4 | C8 | C4 z4 | C8 | C4 z4 | z4 z2!ff! G,2 | G,8- | G,4 z2 (3G,D,G, | G,8- | G,4 z2 (3DG,D | %36
 G4 z4 | z8 |!mf! C,6 _E,_D, |!>(! C,6 _E,_D,!>)! |!p! C,8 | G,8 | C,8 | z8 | !fermata!z8 | %45
 _A,4 G,4 | _A,4 _E,4 | .B,,2 .^A,, z/ .B,,/ ^F,,4 | ._E,2 .D, z/ .E,/ _B,,4 | z8 | z8 | z8 | z8 | %53
[K:Ab] z8 | z8 | z8 | z8 | z8 | z8 | z8 | z8 |!f! F,4 G,4 | F,4 z4 | A,4 __B,4 | A,4 z4 | z8 | %66
!ff! =D z/ C/ B, z/ =A,/ G, z/ F,/ G, z/ A,/ | B, z z2 z4 | z8 | %69
 =D, z/ F,/ B, z/ =A,/ G, z/ F,/ E, z/ D,/ | E, z/ B,/ E z/ =D/ C z/ B,/ A, z/ _G,/ | F, z z2 z4 | %72
 z8 |!f! E,2 _G,2 _C,2 _F,2 |!fff! B,,4 D,4 |!>(! F,,8-!>)! | F,,2 z2!ff! B,,2 D,2 | F,6 z2 | %78
!ff! !tenuto!B,,2 D, z/ F,,/ !tenuto!B,,2 D, z/ F,/ | B,4 =A,4 | A,4 G,4 | _G,4 D,4 | C,8 | F,,8 | %84
 =E,,8 |!ff! F,,8 |!>(! =E,,8-!>)! |!pp! E,,8 | !fermata!z8 |[M:2/2][Q:1/2=90] z4 z2!ff! =B,,C, | %90
 D,4- D,C,=B,,C, | A,,2 F,,2 z2 =B,,C, | (D,3 C,) =B,,C,F,A, | C4- C z z2 | z8 | z4 z2 A,2 | %96
 D4- DCB,C | D2 G,2 z2 G,2 | D4- DCB,C | ^C2 =D2 z2 CD | ^D2 =E2 z2 A,D | ^D2 =E2 z2 G,E | %102
 F4- F=E=DE | F2 C2 z2 =EF |[Q:1/2=104]"^\n" _G4- GF=EF | ._G2 .C2 z2 .G2 | .C2 z2 ._G2 .C2 | %107
 z2 ._G2 .C2 z2 |!fff! ._G4 .C2 z2 | ._G4 .C2 z2 | _G8- | (3:2:2G4 .F2 (3.=E2 ._E2 .=D2 | %112
 .D2 .D,2 z4 | z8 |!ff! =B,4 =A,3 B, | ^F,8 | z8 |!ff! =E,4 =D,3 E, | =B,,8 | z8 | %120
 =B,,4 =A,,3 B,, | ^F,,8- | F,,8 |] %123

